X: 36981
T: Sí Beag Sí Mór
R: waltz
M: 3/4
K: Dmajor
FG|A4G2|F3G AF|G4GF|D2A,2D2|G4B2|A2B2c2|d2A3G|F2D2F2|
G2E4|F2D4|A,4^A,2|B,4F2|G2F2E2|A2A,4|D6-|-D4:|:
A2|d2A4|A2d2c2|d2 GA Bc|d2A4|ABc2AB|c2F2A2|B2D2GF|G2F2E2|
A,4^A,2|B,4F2|G2E4|F2D4|GAB2G2|A2A,4|D6-|-D4:|

